src/assets/duotone/Dai.svg

<svg width="24" height="24" viewBox="0 0 24 24"  xmlns="http://www.w3.org/2000/svg">
<path opacity="0.4" d="M12 22C17.5228 22 22 17.5228 22 12C22 6.47715 17.5228 2 12 2C6.47715 2 2 6.47715 2 12C2 17.5228 6.47715 22 12 22Z" />
<path d="M12 17.75H8C7.59 17.75 7.25 17.41 7.25 17V7C7.25 6.59 7.59 6.25 8 6.25H12C15.17 6.25 17.75 8.83 17.75 12C17.75 15.17 15.17 17.75 12 17.75ZM8.75 16.25H12C14.34 16.25 16.25 14.34 16.25 12C16.25 9.66 14.34 7.75 12 7.75H8.75V16.25Z" />
<path d="M18.52 10.75H6.47998C6.06998 10.75 5.72998 10.41 5.72998 10C5.72998 9.59 6.06998 9.25 6.47998 9.25H18.52C18.93 9.25 19.27 9.59 19.27 10C19.27 10.41 18.93 10.75 18.52 10.75Z" />
<path d="M18.52 14.75H6.47998C6.06998 14.75 5.72998 14.41 5.72998 14C5.72998 13.59 6.06998 13.25 6.47998 13.25H18.52C18.93 13.25 19.27 13.59 19.27 14C19.27 14.41 18.93 14.75 18.52 14.75Z" />
</svg>

<?xml version="1.0" encoding="UTF-8"?>
<svg width="24" height="24" viewBox="0 0 24 24" xmlns="http://www.w3.org/2000/svg">
 <path d="m12 22c5.5228 0 10-4.4772 10-10 0-5.5228-4.4772-10-10-10-5.5228 0-10 4.4772-10 10 0 5.5228 4.4772 10 10 10z" opacity=".4"/>
 <path d="m12 17.75h-4c-0.41 0-0.75-0.34-0.75-0.75v-10c0-0.41 0.34-0.75 0.75-0.75h4c3.17 0 5.75 2.58 5.75 5.75s-2.58 5.75-5.75 5.75zm-3.25-1.5h3.25c2.34 0 4.25-1.91 4.25-4.25s-1.91-4.25-4.25-4.25h-3.25v8.5z"/>
 <path d="m18.52 10.75h-12.04c-0.41 0-0.75-0.34-0.75-0.75s0.34-0.75 0.75-0.75h12.04c0.41 0 0.75 0.34 0.75 0.75s-0.34 0.75-0.75 0.75z"/>
 <path d="m18.52 14.75h-12.04c-0.41 0-0.75-0.34-0.75-0.75s0.34-0.75 0.75-0.75h12.04c0.41 0 0.75 0.34 0.75 0.75s-0.34 0.75-0.75 0.75z"/>
</svg>
